(G-CODE GENERATED BY FLATCAM v8.994 - www.flatcam.org - Version Date: 2020/11/7)

(Name: CoffeMaker-PTH.drl_cnc)
(Type: G-code from Geometry)
(Units: MM)

(Created on Friday, 05 September 2025 at 11:26)

(This preprocessor is used with a motion controller loaded with GRBL firmware.)
(It is configured to be compatible with almost any version of GRBL firmware.)


(TOOLS DIAMETER: )
(Tool: 1 -> Dia: 0.8)
(Tool: 2 -> Dia: 0.95)
(Tool: 3 -> Dia: 1.0)
(Tool: 4 -> Dia: 1.016)
(Tool: 5 -> Dia: 1.1)

(FEEDRATE Z: )
(Tool: 1 -> Feedrate: 60.0)
(Tool: 2 -> Feedrate: 60.0)
(Tool: 3 -> Feedrate: 60.0)
(Tool: 4 -> Feedrate: 60.0)
(Tool: 5 -> Feedrate: 60.0)

(FEEDRATE RAPIDS: )
(Tool: 1 -> Feedrate Rapids: 1500)
(Tool: 2 -> Feedrate Rapids: 1500)
(Tool: 3 -> Feedrate Rapids: 1500)
(Tool: 4 -> Feedrate Rapids: 1500)
(Tool: 5 -> Feedrate Rapids: 1500)

(Z_CUT: )
(Tool: 1 -> Z_Cut: -1.7)
(Tool: 2 -> Z_Cut: -1.7)
(Tool: 3 -> Z_Cut: -1.7)
(Tool: 4 -> Z_Cut: -1.7)
(Tool: 5 -> Z_Cut: -1.7)

(Tools Offset: )
(Tool: 5 -> Offset Z: 0.0)

(Z_MOVE: )
(Tool: 1 -> Z_Move: 2)
(Tool: 2 -> Z_Move: 2)
(Tool: 3 -> Z_Move: 2)
(Tool: 4 -> Z_Move: 2)
(Tool: 5 -> Z_Move: 2)

(Z Toolchange: 15 mm)
(X,Y Toolchange: 0.0000, 0.0000 mm)
(Z Start: None mm)
(Z End: 0.5 mm)
(X,Y End: None mm)
(Steps per circle: 64)
(Steps per circle: 64)
(Preprocessor Excellon: GRBL_11_no_M6)

(X range:   11.5000 ...   59.0500  mm)
(Y range:    3.1000 ...   43.4880  mm)

(Spindle Speed: 2000 RPM)
G21
G90
G17
G94


G01 F60.00

M5             
G00 Z15.0000
G00 X0.0000 Y0.0000                
T5
(MSG, Change to Tool Dia = 1.1000 ||| Total drills for tool T5 = 2)
M0
G00 Z15.0000
        
G01 F60.00
M03 S2000
G00 X58.5000 Y41.4680
G01 Z-1.7000
G01 Z0
G00 Z2.0000
G00 X58.5000 Y41.4680
G01 Z-1.7000
G01 Z0
G00 Z2.0000
G00 X48.3400 Y41.4680
G01 Z-1.7000
G01 Z0
G00 Z2.0000
M05
G00 Z0.50


