(G-CODE GENERATED BY FLATCAM v8.994 - www.flatcam.org - Version Date: 2020/11/7)

(Name: CoffeMaker-PTH.drl_cnc)
(Type: G-code from Geometry)
(Units: MM)

(Created on Friday, 05 September 2025 at 09:29)

;This preprocessor is used with a motion controller loaded with REPETIER firmware.


;TOOLS DIAMETER: 
;Tool: 1 -> Dia: 0.8
;Tool: 2 -> Dia: 0.95
;Tool: 3 -> Dia: 1.0
;Tool: 4 -> Dia: 1.016
;Tool: 5 -> Dia: 1.1

;FEEDRATE Z: 
;Tool: 1 -> Feedrate: 60.0
;Tool: 2 -> Feedrate: 60.0
;Tool: 3 -> Feedrate: 60.0
;Tool: 4 -> Feedrate: 60.0
;Tool: 5 -> Feedrate: 60.0

;FEEDRATE RAPIDS: 
;Tool: 1 -> Feedrate Rapids: 1500
;Tool: 2 -> Feedrate Rapids: 1500
;Tool: 3 -> Feedrate Rapids: 1500
;Tool: 4 -> Feedrate Rapids: 1500
;Tool: 5 -> Feedrate Rapids: 1500

;Z_CUT: 
;Tool: 1 -> Z_Cut: -1.7
;Tool: 2 -> Z_Cut: -1.7
;Tool: 3 -> Z_Cut: -1.7
;Tool: 4 -> Z_Cut: -1.7
;Tool: 5 -> Z_Cut: -1.7

;Tools Offset: 
;Tool: 3 -> Offset Z: 0.0
;Tool: 2 -> Offset Z: 0.0
;Tool: 4 -> Offset Z: 0.0
;Tool: 5 -> Offset Z: 0.0
;Tool: 1 -> Offset Z: 0.0

;Z_MOVE: 
;Tool: 1 -> Z_Move: 2
;Tool: 2 -> Z_Move: 2
;Tool: 3 -> Z_Move: 2
;Tool: 4 -> Z_Move: 2
;Tool: 5 -> Z_Move: 2

;Z Toolchange: 15 mm
;X,Y Toolchange: 0.0000, 0.0000 mm
;Z Start: None mm
;Z End: 0.5 mm
;X,Y End: None mm
;Steps per circle: 64
;Preprocessor Excellon: Repetier

;X range:   11.5000 ...   59.0500  mm
;Y range:    3.1000 ...   43.4880  mm

;Spindle Speed: 2000 RPM)
G21
G90
G94


G1 F60.00

G0 Z15.0000
G0 X0.0000 Y0.0000                
M84
@pause Change to Tool Dia = 0.8000, Total drills for tool T1 = 37
G0 Z15.0000

G1 F60.00
M106 S2000
G0 X32.5000 Y43.0880 F1500.00
G1 Z-1.7000 F60.00
G1 Z0 G1 F60.00
G0 Z2.0000 F1500.00
G0 X32.5000 Y43.0880 F1500.00
G1 Z-1.7000 F60.00
G1 Z0 G1 F60.00
G0 Z2.0000 F1500.00
G0 X27.0000 Y41.4680 F1500.00
G1 Z-1.7000 F60.00
G1 Z0 G1 F60.00
G0 Z2.0000 F1500.00
G0 X24.5000 Y41.4680 F1500.00
G1 Z-1.7000 F60.00
G1 Z0 G1 F60.00
G0 Z2.0000 F1500.00
G0 X22.0000 Y41.4680 F1500.00
G1 Z-1.7000 F60.00
G1 Z0 G1 F60.00
G0 Z2.0000 F1500.00
G0 X14.5000 Y41.4680 F1500.00
G1 Z-1.7000 F60.00
G1 Z0 G1 F60.00
G0 Z2.0000 F1500.00
G0 X12.0000 Y41.4680 F1500.00
G1 Z-1.7000 F60.00
G1 Z0 G1 F60.00
G0 Z2.0000 F1500.00
G0 X12.5000 Y29.4680 F1500.00
G1 Z-1.7000 F60.00
G1 Z0 G1 F60.00
G0 Z2.0000 F1500.00
G0 X12.5000 Y26.9680 F1500.00
G1 Z-1.7000 F60.00
G1 Z0 G1 F60.00
G0 Z2.0000 F1500.00
G0 X12.5000 Y24.4680 F1500.00
G1 Z-1.7000 F60.00
G1 Z0 G1 F60.00
G0 Z2.0000 F1500.00
G0 X24.5000 Y17.8480 F1500.00
G1 Z-1.7000 F60.00
G1 Z0 G1 F60.00
G0 Z2.0000 F1500.00
G0 X32.5000 Y27.8480 F1500.00
G1 Z-1.7000 F60.00
G1 Z0 G1 F60.00
G0 Z2.0000 F1500.00
G0 X36.7200 Y26.4680 F1500.00
G1 Z-1.7000 F60.00
G1 Z0 G1 F60.00
G0 Z2.0000 F1500.00
G0 X39.2600 Y26.4680 F1500.00
G1 Z-1.7000 F60.00
G1 Z0 G1 F60.00
G0 Z2.0000 F1500.00
G0 X41.8000 Y26.4680 F1500.00
G1 Z-1.7000 F60.00
G1 Z0 G1 F60.00
G0 Z2.0000 F1500.00
G0 X44.3400 Y26.4680 F1500.00
G1 Z-1.7000 F60.00
G1 Z0 G1 F60.00
G0 Z2.0000 F1500.00
G0 X46.8800 Y26.4680 F1500.00
G1 Z-1.7000 F60.00
G1 Z0 G1 F60.00
G0 Z2.0000 F1500.00
G0 X49.4200 Y26.4680 F1500.00
G1 Z-1.7000 F60.00
G1 Z0 G1 F60.00
G0 Z2.0000 F1500.00
G0 X51.9600 Y26.4680 F1500.00
G1 Z-1.7000 F60.00
G1 Z0 G1 F60.00
G0 Z2.0000 F1500.00
G0 X54.5000 Y26.4680 F1500.00
G1 Z-1.7000 F60.00
G1 Z0 G1 F60.00
G0 Z2.0000 F1500.00
G0 X58.5000 Y32.9680 F1500.00
G1 Z-1.7000 F60.00
G1 Z0 G1 F60.00
G0 Z2.0000 F1500.00
G0 X58.5000 Y35.4680 F1500.00
G1 Z-1.7000 F60.00
G1 Z0 G1 F60.00
G0 Z2.0000 F1500.00
G0 X58.5000 Y41.4680 F1500.00
G1 Z-1.7000 F60.00
G1 Z0 G1 F60.00
G0 Z2.0000 F1500.00
G0 X48.3400 Y41.4680 F1500.00
G1 Z-1.7000 F60.00
G1 Z0 G1 F60.00
G0 Z2.0000 F1500.00
G0 X43.5000 Y41.4680 F1500.00
G1 Z-1.7000 F60.00
G1 Z0 G1 F60.00
G0 Z2.0000 F1500.00
G0 X41.0000 Y41.4680 F1500.00
G1 Z-1.7000 F60.00
G1 Z0 G1 F60.00
G0 Z2.0000 F1500.00
G0 X38.5000 Y41.4680 F1500.00
G1 Z-1.7000 F60.00
G1 Z0 G1 F60.00
G0 Z2.0000 F1500.00
G0 X24.5000 Y33.0880 F1500.00
G1 Z-1.7000 F60.00
G1 Z0 G1 F60.00
G0 Z2.0000 F1500.00
G0 X12.5000 Y8.4680 F1500.00
G1 Z-1.7000 F60.00
G1 Z0 G1 F60.00
G0 Z2.0000 F1500.00
G0 X12.5000 Y5.9680 F1500.00
G1 Z-1.7000 F60.00
G1 Z0 G1 F60.00
G0 Z2.0000 F1500.00
G0 X36.7200 Y3.6080 F1500.00
G1 Z-1.7000 F60.00
G1 Z0 G1 F60.00
G0 Z2.0000 F1500.00
G0 X39.2600 Y3.6080 F1500.00
G1 Z-1.7000 F60.00
G1 Z0 G1 F60.00
G0 Z2.0000 F1500.00
G0 X41.8000 Y3.6080 F1500.00
G1 Z-1.7000 F60.00
G1 Z0 G1 F60.00
G0 Z2.0000 F1500.00
G0 X44.3400 Y3.6080 F1500.00
G1 Z-1.7000 F60.00
G1 Z0 G1 F60.00
G0 Z2.0000 F1500.00
G0 X46.8800 Y3.6080 F1500.00
G1 Z-1.7000 F60.00
G1 Z0 G1 F60.00
G0 Z2.0000 F1500.00
G0 X49.4200 Y3.6080 F1500.00
G1 Z-1.7000 F60.00
G1 Z0 G1 F60.00
G0 Z2.0000 F1500.00
G0 X51.9600 Y3.6080 F1500.00
G1 Z-1.7000 F60.00
G1 Z0 G1 F60.00
G0 Z2.0000 F1500.00
G0 X54.5000 Y3.6080 F1500.00
G1 Z-1.7000 F60.00
G1 Z0 G1 F60.00
G0 Z2.0000 F1500.00
M107
G0 Z0.50 F1500.00


