(G-CODE GENERATED BY FLATCAM v8.994 - www.flatcam.org - Version Date: 2020/11/7)

(Name: CoffeMaker-Edge_Cuts.gbr_iso_combined_cnc)
(Type: G-code from Geometry)
(Units: MM)

(Created on Friday, 05 September 2025 at 11:31)

(This preprocessor is the default preprocessor used by FlatCAM.)
(It is made to work with MACH3 compatible motion controllers.)

(TOOL DIAMETER: 0.1 mm)
(Feedrate_XY: 100.0 mm/min)
(Feedrate_Z: 60.0 mm/min)
(Feedrate rapids 1500.0 mm/min)

(Z_Cut: -1.7 mm)
(Z_Move: 1.0 mm)
(Z Start: None mm)
(Z End: 15.0 mm)
(X,Y End: None mm)
(Steps per circle: 64)
(Preprocessor Geometry: default)

(X range:   -0.0500 ...   65.1000  mm)
(Y range:   -0.0500 ...   50.1000  mm)

(Spindle Speed: 1000.0 RPM)
G21
G90
G94

G01 F100.00

M5
G00 Z15.0000
G00 X0.0000 Y0.0000
T1
M6    
(MSG, Change to Tool Dia = 0.1000)
M0
G00 Z15.0000

M03 S1000.0
G01 F100.00
G00 X0.1000 Y49.9500
G01 F60.00
G01 Z-1.7000
G01 F100.00
G01 X0.1000 Y0.1000
G01 X64.9500 Y0.1000
G01 X64.9500 Y49.9500
G01 X0.1000 Y49.9500
G00 Z1.0000
G00 X-0.0500 Y50.0250
G01 F60.00
G01 Z-1.7000
G01 F100.00
G01 X-0.0500 Y0.0250
G01 X-0.0496 Y0.0177
G01 X-0.0483 Y0.0092
G01 X-0.0460 Y0.0009
G01 X-0.0422 Y-0.0082
G01 X-0.0380 Y-0.0156
G01 X-0.0330 Y-0.0226
G01 X-0.0280 Y-0.0280
G01 X-0.0216 Y-0.0337
G01 X-0.0167 Y-0.0374
G01 X-0.0103 Y-0.0411
G01 X-0.0048 Y-0.0438
G01 X0.0009 Y-0.0460
G01 X0.0116 Y-0.0488
G01 X0.0177 Y-0.0496
G01 X0.0250 Y-0.0500
G01 X65.0250 Y-0.0500
G01 X65.0324 Y-0.0496
G01 X65.0408 Y-0.0483
G01 X65.0491 Y-0.0460
G01 X65.0582 Y-0.0422
G01 X65.0657 Y-0.0380
G01 X65.0726 Y-0.0330
G01 X65.0781 Y-0.0280
G01 X65.0838 Y-0.0216
G01 X65.0874 Y-0.0167
G01 X65.0912 Y-0.0103
G01 X65.0938 Y-0.0048
G01 X65.0960 Y0.0009
G01 X65.0988 Y0.0116
G01 X65.0997 Y0.0177
G01 X65.1000 Y0.0250
G01 X65.1000 Y50.0250
G01 X65.0997 Y50.0324
G01 X65.0983 Y50.0408
G01 X65.0960 Y50.0491
G01 X65.0923 Y50.0582
G01 X65.0881 Y50.0657
G01 X65.0830 Y50.0726
G01 X65.0781 Y50.0781
G01 X65.0716 Y50.0838
G01 X65.0667 Y50.0874
G01 X65.0604 Y50.0912
G01 X65.0548 Y50.0938
G01 X65.0491 Y50.0960
G01 X65.0384 Y50.0988
G01 X65.0324 Y50.0997
G01 X65.0250 Y50.1000
G01 X0.0250 Y50.1000
G01 X0.0177 Y50.0997
G01 X0.0104 Y50.0986
G01 X0.0032 Y50.0968
G01 X-0.0037 Y50.0943
G01 X-0.0103 Y50.0912
G01 X-0.0167 Y50.0874
G01 X-0.0226 Y50.0830
G01 X-0.0280 Y50.0781
G01 X-0.0330 Y50.0726
G01 X-0.0374 Y50.0667
G01 X-0.0411 Y50.0604
G01 X-0.0443 Y50.0537
G01 X-0.0468 Y50.0468
G01 X-0.0486 Y50.0396
G01 X-0.0496 Y50.0324
G01 X-0.0500 Y50.0250
G00 Z1.0000
M05
G00 Z1.0000
G00 Z15.00


