(G-CODE GENERATED BY FLATCAM v8.994 - www.flatcam.org - Version Date: 2020/11/7)

(Name: CoffeMaker-B_Cu.gbr_iso_combined_cnc)
(Type: G-code from Geometry)
(Units: MM)

(Created on Friday, 05 September 2025 at 09:21)

(This preprocessor is the default preprocessor used by FlatCAM.)
(It is made to work with MACH3 compatible motion controllers.)

(TOOL DIAMETER: 0.14 mm)
(Feedrate_XY: 100.0 mm/min)
(Feedrate_Z: 40.0 mm/min)
(Feedrate rapids 1500.0 mm/min)

(Z_Cut: -0.1134 mm)
(Z_Move: 1.0 mm)
(Z Start: None mm)
(Z End: 15.0 mm)
(X,Y End: None mm)
(Steps per circle: 64)
(Preprocessor Geometry: default)

(X range:   -0.1700 ...   64.1690  mm)
(Y range:   -0.1700 ...   49.1690  mm)

(Spindle Speed: 2000.0 RPM)
G21
G90
G94

G01 F100.00

M5
G00 Z15.0000
G00 X0.0000 Y0.0000
T1
M6    
(MSG, Change to Tool Dia = 0.1400)
M0
G00 Z15.0000

M03 S2000.0
G01 F100.00
G00 X11.2372 Y5.3179
G01 F40.00
G01 Z-0.1134
G01 F100.00
G01 X11.3575 Y5.1523
G01 X11.5023 Y5.0075
G01 X11.6679 Y4.8872
G01 X11.8503 Y4.7943
G01 X12.0450 Y4.7310
G01 X12.2471 Y4.6990
G01 X12.7519 Y4.6990
G01 X12.9540 Y4.7310
G01 X13.1487 Y4.7943
G01 X13.3311 Y4.8872
G01 X13.5128 Y5.0194
G01 X13.5181 Y5.0229
G01 X13.5226 Y5.0251
G01 X13.5274 Y5.0269
G01 X13.5956 Y5.0470
G01 X13.6026 Y5.0485
G01 X13.6085 Y5.0490
G01 X35.8264 Y5.0490
G01 X35.8321 Y5.0487
G01 X35.8602 Y5.0455
G01 X35.8687 Y5.0437
G01 X35.8769 Y5.0405
G01 X35.9410 Y5.0043
G01 X35.9461 Y5.0008
G01 X35.9507 Y4.9967
G01 X35.9548 Y4.9921
G01 X35.9589 Y4.9858
G01 X35.9927 Y4.9219
G01 X35.9951 Y4.9161
G01 X35.9970 Y4.9089
G01 X35.9978 Y4.9028
G01 X35.9977 Y4.8953
G01 X35.9918 Y4.8257
G01 X35.9903 Y4.8172
G01 X35.9873 Y4.8090
G01 X35.9823 Y4.8005
G01 X35.9389 Y4.7441
G01 X35.9341 Y4.7388
G01 X35.9287 Y4.7342
G01 X35.8397 Y4.6696
G01 X35.6894 Y4.5193
G01 X35.5644 Y4.3473
G01 X35.4679 Y4.1579
G01 X35.4023 Y3.9557
G01 X35.3690 Y3.7458
G01 X35.3690 Y3.5332
G01 X35.4023 Y3.3233
G01 X35.4679 Y3.1211
G01 X35.5644 Y2.9317
G01 X35.6894 Y2.7597
G01 X35.8397 Y2.6094
G01 X36.0117 Y2.4844
G01 X36.2011 Y2.3879
G01 X36.4033 Y2.3223
G01 X36.6132 Y2.2890
G01 X36.8258 Y2.2890
G01 X37.0357 Y2.3223
G01 X37.2379 Y2.3879
G01 X37.4273 Y2.4844
G01 X37.5993 Y2.6094
G01 X37.7496 Y2.7597
G01 X37.8487 Y2.8961
G01 X37.8678 Y2.9183
G01 X37.8735 Y2.9231
G01 X37.8787 Y2.9264
G01 X37.9426 Y2.9602
G01 X37.9484 Y2.9626
G01 X37.9543 Y2.9643
G01 X37.9592 Y2.9651
G01 X37.9654 Y2.9654
G01 X38.0400 Y2.9591
G01 X38.0461 Y2.9581
G01 X38.0520 Y2.9562
G01 X38.0577 Y2.9537
G01 X38.0640 Y2.9498
G01 X38.1213 Y2.9056
G01 X38.1257 Y2.9016
G01 X38.1303 Y2.8961
G01 X38.2294 Y2.7597
G01 X38.3797 Y2.6094
G01 X38.5517 Y2.4844
G01 X38.7411 Y2.3879
G01 X38.9433 Y2.3223
G01 X39.1532 Y2.2890
G01 X39.3658 Y2.2890
G01 X39.5757 Y2.3223
G01 X39.7779 Y2.3879
G01 X39.9673 Y2.4844
G01 X40.1393 Y2.6094
G01 X40.2896 Y2.7597
G01 X40.3887 Y2.8961
G01 X40.4078 Y2.9183
G01 X40.4135 Y2.9231
G01 X40.4187 Y2.9264
G01 X40.4826 Y2.9602
G01 X40.4884 Y2.9626
G01 X40.4931 Y2.9640
G01 X40.4992 Y2.9651
G01 X40.5054 Y2.9654
G01 X40.5800 Y2.9591
G01 X40.5861 Y2.9581
G01 X40.5920 Y2.9562
G01 X40.5977 Y2.9537
G01 X40.6040 Y2.9498
G01 X40.6613 Y2.9056
G01 X40.6665 Y2.9007
G01 X40.6703 Y2.8961
G01 X40.7694 Y2.7597
G01 X40.9197 Y2.6094
G01 X41.0917 Y2.4844
G01 X41.2811 Y2.3879
G01 X41.4833 Y2.3223
G01 X41.6932 Y2.2890
G01 X41.9058 Y2.2890
G01 X42.1157 Y2.3223
G01 X42.3179 Y2.3879
G01 X42.5073 Y2.4844
G01 X42.6793 Y2.6094
G01 X42.8296 Y2.7597
G01 X42.9287 Y2.8961
G01 X42.9478 Y2.9183
G01 X42.9525 Y2.9223
G01 X42.9587 Y2.9264
G01 X43.0226 Y2.9602
G01 X43.0284 Y2.9626
G01 X43.0331 Y2.9640
G01 X43.0392 Y2.9651
G01 X43.0454 Y2.9654
G01 X43.1200 Y2.9591
G01 X43.1261 Y2.9581
G01 X43.1320 Y2.9562
G01 X43.1377 Y2.9537
G01 X43.1440 Y2.9498
G01 X43.2013 Y2.9056
G01 X43.2065 Y2.9007
G01 X43.2103 Y2.8961
G01 X43.3094 Y2.7597
G01 X43.4597 Y2.6094
G01 X43.6317 Y2.4844
G01 X43.8211 Y2.3879
G01 X44.0233 Y2.3223
G01 X44.2332 Y2.2890
G01 X44.4458 Y2.2890
G01 X44.6557 Y2.3223
G01 X44.8579 Y2.3879
G01 X45.0473 Y2.4844
G01 X45.2193 Y2.6094
G01 X45.3696 Y2.7597
G01 X45.4687 Y2.8961
G01 X45.4878 Y2.9183
G01 X45.4925 Y2.9223
G01 X45.4987 Y2.9264
G01 X45.5626 Y2.9602
G01 X45.5684 Y2.9626
G01 X45.5731 Y2.9640
G01 X45.5792 Y2.9651
G01 X45.5854 Y2.9654
G01 X45.6600 Y2.9591
G01 X45.6661 Y2.9581
G01 X45.6720 Y2.9562
G01 X45.6777 Y2.9537
G01 X45.6840 Y2.9498
G01 X45.7413 Y2.9056
G01 X45.7465 Y2.9007
G01 X45.7503 Y2.8961
G01 X45.8494 Y2.7597
G01 X45.9997 Y2.6094
G01 X46.1717 Y2.4844
G01 X46.3611 Y2.3879
G01 X46.5633 Y2.3223
G01 X46.7732 Y2.2890
G01 X46.9858 Y2.2890
G01 X47.1957 Y2.3223
G01 X47.3979 Y2.3879
G01 X47.5873 Y2.4844
G01 X47.7593 Y2.6094
G01 X47.9096 Y2.7597
G01 X48.0087 Y2.8961
G01 X48.0278 Y2.9183
G01 X48.0325 Y2.9223
G01 X48.0387 Y2.9264
G01 X48.1026 Y2.9602
G01 X48.1084 Y2.9626
G01 X48.1131 Y2.9640
G01 X48.1192 Y2.9651
G01 X48.1254 Y2.9654
G01 X48.2000 Y2.9591
G01 X48.2061 Y2.9581
G01 X48.2120 Y2.9562
G01 X48.2177 Y2.9537
G01 X48.2240 Y2.9498
G01 X48.2813 Y2.9056
G01 X48.2865 Y2.9007
G01 X48.2903 Y2.8961
G01 X48.3894 Y2.7597
G01 X48.5397 Y2.6094
G01 X48.7117 Y2.4844
G01 X48.9011 Y2.3879
G01 X49.1033 Y2.3223
G01 X49.3132 Y2.2890
G01 X49.5258 Y2.2890
G01 X49.7357 Y2.3223
G01 X49.9379 Y2.3879
G01 X50.1273 Y2.4844
G01 X50.2993 Y2.6094
G01 X50.4496 Y2.7597
G01 X50.5487 Y2.8961
G01 X50.5678 Y2.9183
G01 X50.5725 Y2.9223
G01 X50.5787 Y2.9264
G01 X50.6426 Y2.9602
G01 X50.6484 Y2.9626
G01 X50.6531 Y2.9640
G01 X50.6592 Y2.9651
G01 X50.6654 Y2.9654
G01 X50.7400 Y2.9591
G01 X50.7461 Y2.9581
G01 X50.7520 Y2.9562
G01 X50.7577 Y2.9537
G01 X50.7640 Y2.9498
G01 X50.8213 Y2.9056
G01 X50.8265 Y2.9007
G01 X50.8303 Y2.8961
G01 X50.9294 Y2.7597
G01 X51.0797 Y2.6094
G01 X51.2517 Y2.4844
G01 X51.4411 Y2.3879
G01 X51.6433 Y2.3223
G01 X51.8532 Y2.2890
G01 X52.0658 Y2.2890
G01 X52.2757 Y2.3223
G01 X52.4779 Y2.3879
G01 X52.6673 Y2.4844
G01 X52.8393 Y2.6094
G01 X52.9896 Y2.7597
G01 X53.0887 Y2.8961
G01 X53.1078 Y2.9183
G01 X53.1125 Y2.9223
G01 X53.1187 Y2.9264
G01 X53.1826 Y2.9602
G01 X53.1884 Y2.9626
G01 X53.1931 Y2.9640
G01 X53.1992 Y2.9651
G01 X53.2054 Y2.9654
G01 X53.2825 Y2.9588
G01 X53.2885 Y2.9574
G01 X53.2932 Y2.9558
G01 X53.2988 Y2.9531
G01 X53.3040 Y2.9498
G01 X53.3604 Y2.9063
G01 X53.3665 Y2.9007
G01 X53.3703 Y2.8961
G01 X53.4694 Y2.7597
G01 X53.6197 Y2.6094
G01 X53.7917 Y2.4844
G01 X53.9811 Y2.3879
G01 X54.1833 Y2.3223
G01 X54.3932 Y2.2890
G01 X54.6058 Y2.2890
G01 X54.8157 Y2.3223
G01 X55.0179 Y2.3879
G01 X55.2073 Y2.4844
G01 X55.3793 Y2.6094
G01 X55.5296 Y2.7597
G01 X55.6546 Y2.9317
G01 X55.7511 Y3.1211
G01 X55.8167 Y3.3233
G01 X55.8500 Y3.5332
G01 X55.8500 Y3.7458
G01 X55.8167 Y3.9557
G01 X55.7511 Y4.1579
G01 X55.6545 Y4.3473
G01 X55.5296 Y4.5193
G01 X55.3793 Y4.6696
G01 X55.2073 Y4.7945
G01 X55.0179 Y4.8911
G01 X54.8157 Y4.9567
G01 X54.6058 Y4.9900
G01 X54.5626 Y4.9901
G01 X54.5324 Y4.9933
G01 X54.5263 Y4.9944
G01 X54.5205 Y4.9963
G01 X54.5160 Y4.9984
G01 X54.4506 Y5.0343
G01 X54.4467 Y5.0370
G01 X54.4422 Y5.0410
G01 X53.5044 Y5.9788
G01 X53.3487 Y6.0828
G01 X53.2245 Y6.1343
G01 X53.1757 Y6.1545
G01 X52.9921 Y6.1910
G01 X40.7669 Y6.1910
G01 X40.5832 Y6.1545
G01 X40.4783 Y6.1110
G01 X40.4103 Y6.0828
G01 X40.2546 Y5.9788
G01 X39.3808 Y5.1051
G01 X39.3742 Y5.1000
G01 X39.3288 Y5.0709
G01 X39.3233 Y5.0680
G01 X39.3174 Y5.0658
G01 X39.3126 Y5.0646
G01 X39.3064 Y5.0637
G01 X39.2317 Y5.0586
G01 X39.2256 Y5.0592
G01 X39.2207 Y5.0602
G01 X39.2160 Y5.0617
G01 X39.2103 Y5.0642
G01 X39.1468 Y5.0988
G01 X39.1419 Y5.1021
G01 X39.1373 Y5.1059
G01 X37.5054 Y6.7378
G01 X37.3497 Y6.8418
G01 X37.2255 Y6.8933
G01 X37.1767 Y6.9135
G01 X36.9931 Y6.9500
G01 X13.6580 Y6.9500
G01 X13.6504 Y6.9506
G01 X13.6121 Y6.9565
G01 X13.6062 Y6.9579
G01 X13.6005 Y6.9600
G01 X13.5931 Y6.9641
G01 X13.5350 Y7.0030
G01 X13.5291 Y7.0076
G01 X13.5225 Y7.0150
G01 X13.5175 Y7.0235
G01 X13.4886 Y7.0898
G01 X13.4867 Y7.0957
G01 X13.4854 Y7.1018
G01 X13.4850 Y7.1080
G01 X13.4854 Y7.1154
G01 X13.4971 Y7.1868
G01 X13.4998 Y7.1964
G01 X13.5045 Y7.2051
G01 X13.5090 Y7.2110
G01 X13.5557 Y7.2630
G01 X13.5627 Y7.2694
G01 X13.6869 Y7.3463
G01 X13.8027 Y7.4621
G01 X13.8074 Y7.4694
G01 X13.8114 Y7.4742
G01 X13.8516 Y7.5152
G01 X13.8552 Y7.5184
G01 X13.8602 Y7.5219
G01 X13.8644 Y7.5242
G01 X13.8700 Y7.5266
G01 X13.9405 Y7.5473
G01 X13.9463 Y7.5485
G01 X13.9523 Y7.5490
G01 X15.2131 Y7.5490
G01 X15.3968 Y7.5855
G01 X15.4455 Y7.6057
G01 X15.5697 Y7.6572
G01 X15.7254 Y7.7612
G01 X24.5534 Y16.5891
G01 X24.5622 Y16.5971
G01 X24.5693 Y16.6017
G01 X24.6346 Y16.6328
G01 X24.6412 Y16.6353
G01 X24.6482 Y16.6370
G01 X24.7923 Y16.6598
G01 X24.9795 Y16.7206
G01 X25.1549 Y16.8100
G01 X25.3141 Y16.9257
G01 X25.4533 Y17.0649
G01 X25.5690 Y17.2241
G01 X25.6584 Y17.3995
G01 X25.7192 Y17.5867
G01 X25.7500 Y17.7811
G01 X25.7500 Y17.9779
G01 X25.7192 Y18.1723
G01 X25.6584 Y18.3595
G01 X25.5690 Y18.5349
G01 X25.4533 Y18.6941
G01 X25.3141 Y18.8333
G01 X25.1549 Y18.9490
G01 X24.9795 Y19.0384
G01 X24.7923 Y19.0992
G01 X24.5979 Y19.1300
G01 X24.4011 Y19.1300
G01 X24.2067 Y19.0992
G01 X24.0195 Y19.0384
G01 X23.8441 Y18.9490
G01 X23.6849 Y18.8333
G01 X23.5457 Y18.6941
G01 X23.4300 Y18.5349
G01 X23.3406 Y18.3595
G01 X23.2798 Y18.1723
G01 X23.2570 Y18.0282
G01 X23.2539 Y18.0139
G01 X23.2502 Y18.0051
G01 X23.2167 Y17.9437
G01 X23.2135 Y17.9387
G01 X23.2090 Y17.9332
G01 X15.5528 Y10.2770
G01 X15.5481 Y10.2729
G01 X15.5218 Y10.2525
G01 X15.5134 Y10.2478
G01 X15.5054 Y10.2450
G01 X15.4365 Y10.2274
G01 X15.4292 Y10.2263
G01 X15.4230 Y10.2262
G01 X15.4168 Y10.2269
G01 X15.4108 Y10.2283
G01 X15.3421 Y10.2512
G01 X15.3342 Y10.2548
G01 X15.3262 Y10.2606
G01 X15.3201 Y10.2668
G01 X15.2763 Y10.3212
G01 X15.2722 Y10.3271
G01 X15.2690 Y10.3335
G01 X15.2089 Y10.4787
G01 X15.1213 Y10.6098
G01 X15.0098 Y10.7213
G01 X14.8787 Y10.8089
G01 X14.7330 Y10.8692
G01 X14.5783 Y10.9000
G01 X14.4207 Y10.9000
G01 X14.2660 Y10.8692
G01 X14.1203 Y10.8089
G01 X13.9892 Y10.7213
G01 X13.8777 Y10.6098
G01 X13.7901 Y10.4787
G01 X13.7298 Y10.3330
G01 X13.6990 Y10.1783
G01 X13.6990 Y10.0207
G01 X13.7114 Y9.9582
G01 X13.7122 Y9.9524
G01 X13.7128 Y9.9004
G01 X13.7119 Y9.8930
G01 X13.7104 Y9.8870
G01 X13.7076 Y9.8801
G01 X13.6758 Y9.8164
G01 X13.6726 Y9.8112
G01 X13.6687 Y9.8063
G01 X13.6633 Y9.8012
G01 X13.6583 Y9.7976
G01 X13.5972 Y9.7612
G01 X13.5905 Y9.7579
G01 X13.5822 Y9.7553
G01 X13.5724 Y9.7541
G01 X13.5000 Y9.7566
G01 X13.4941 Y9.7571
G01 X13.4860 Y9.7591
G01 X13.3918 Y9.7903
G01 X13.2970 Y9.8000
G01 X11.7020 Y9.8000
G01 X11.6072 Y9.7903
G01 X11.4514 Y9.7387
G01 X11.3121 Y9.6527
G01 X11.1963 Y9.5369
G01 X11.1103 Y9.3976
G01 X11.0587 Y9.2418
G01 X11.0490 Y9.1470
G01 X11.0490 Y7.8520
G01 X11.0587 Y7.7572
G01 X11.1103 Y7.6014
G01 X11.1963 Y7.4621
G01 X11.3121 Y7.3463
G01 X11.4628 Y7.2533
G01 X11.4750 Y7.2449
G01 X11.4816 Y7.2389
G01 X11.5275 Y7.1781
G01 X11.5307 Y7.1728
G01 X11.5333 Y7.1672
G01 X11.5352 Y7.1613
G01 X11.5365 Y7.1539
G01 X11.5417 Y7.0805
G01 X11.5415 Y7.0755
G01 X11.5407 Y7.0694
G01 X11.5391 Y7.0634
G01 X11.5367 Y7.0577
G01 X11.5021 Y6.9941
G01 X11.4982 Y6.9881
G01 X11.4936 Y6.9827
G01 X11.3575 Y6.8467
G01 X11.2372 Y6.6811
G01 X11.1443 Y6.4987
G01 X11.0810 Y6.3040
G01 X11.0490 Y6.1019
G01 X11.0490 Y5.8971
G01 X11.0810 Y5.6950
G01 X11.1443 Y5.5003
G01 X11.2372 Y5.3179
G00 Z1.0000
G00 X11.2714 Y5.3388
G01 F40.00
G01 Z-0.1134
G01 F100.00
G01 X11.3880 Y5.1783
G01 X11.5283 Y5.0380
G01 X11.6889 Y4.9214
G01 X11.8656 Y4.8313
G01 X12.0543 Y4.7700
G01 X12.2503 Y4.7390
G01 X12.7487 Y4.7390
G01 X12.9447 Y4.7700
G01 X13.1334 Y4.8313
G01 X13.3102 Y4.9214
G01 X13.4908 Y5.0529
G01 X13.5005 Y5.0588
G01 X13.5087 Y5.0627
G01 X13.5151 Y5.0650
G01 X13.5843 Y5.0854
G01 X13.5948 Y5.0878
G01 X13.6076 Y5.0890
G01 X35.8264 Y5.0890
G01 X35.8346 Y5.0886
G01 X35.8647 Y5.0852
G01 X35.8736 Y5.0837
G01 X35.8801 Y5.0820
G01 X35.8865 Y5.0799
G01 X35.8927 Y5.0772
G01 X35.9615 Y5.0387
G01 X35.9707 Y5.0323
G01 X35.9791 Y5.0249
G01 X35.9864 Y5.0166
G01 X35.9927 Y5.0073
G01 X36.0295 Y4.9376
G01 X36.0336 Y4.9272
G01 X36.0363 Y4.9164
G01 X36.0377 Y4.9053
G01 X36.0377 Y4.8942
G01 X36.0316 Y4.8223
G01 X36.0295 Y4.8091
G01 X36.0277 Y4.8026
G01 X36.0245 Y4.7943
G01 X36.0206 Y4.7862
G01 X36.0158 Y4.7787
G01 X35.9705 Y4.7197
G01 X35.9635 Y4.7117
G01 X35.9572 Y4.7058
G01 X35.9522 Y4.7019
G01 X35.8658 Y4.6391
G01 X35.7199 Y4.4932
G01 X35.5987 Y4.3264
G01 X35.5050 Y4.1426
G01 X35.4413 Y3.9464
G01 X35.4090 Y3.7426
G01 X35.4090 Y3.5364
G01 X35.4413 Y3.3326
G01 X35.5050 Y3.1364
G01 X35.5987 Y2.9526
G01 X35.7199 Y2.7858
G01 X35.8658 Y2.6399
G01 X36.0326 Y2.5187
G01 X36.2164 Y2.4250
G01 X36.4126 Y2.3613
G01 X36.6164 Y2.3290
G01 X36.8226 Y2.3290
G01 X37.0264 Y2.3613
G01 X37.2226 Y2.4250
G01 X37.4064 Y2.5187
G01 X37.5732 Y2.6399
G01 X37.7191 Y2.7858
G01 X37.8179 Y2.9217
G01 X37.8351 Y2.9417
G01 X37.8412 Y2.9482
G01 X37.8498 Y2.9553
G01 X37.8591 Y2.9613
G01 X37.9269 Y2.9970
G01 X37.9373 Y3.0011
G01 X37.9459 Y3.0034
G01 X37.9547 Y3.0048
G01 X37.9659 Y3.0054
G01 X38.0444 Y2.9989
G01 X38.0554 Y2.9970
G01 X38.0661 Y2.9937
G01 X38.0763 Y2.9891
G01 X38.0858 Y2.9833
G01 X38.1465 Y2.9367
G01 X38.1544 Y2.9295
G01 X38.1613 Y2.9214
G01 X38.2599 Y2.7858
G01 X38.4058 Y2.6399
G01 X38.5726 Y2.5187
G01 X38.7564 Y2.4250
G01 X38.9526 Y2.3613
G01 X39.1564 Y2.3290
G01 X39.3626 Y2.3290
G01 X39.5664 Y2.3613
G01 X39.7626 Y2.4250
G01 X39.9464 Y2.5187
G01 X40.1132 Y2.6399
G01 X40.2591 Y2.7858
G01 X40.3579 Y2.9217
G01 X40.3751 Y2.9417
G01 X40.3812 Y2.9482
G01 X40.3898 Y2.9553
G01 X40.3991 Y2.9613
G01 X40.4669 Y2.9970
G01 X40.4773 Y3.0011
G01 X40.4859 Y3.0034
G01 X40.4970 Y3.0051
G01 X40.5059 Y3.0054
G01 X40.5844 Y2.9989
G01 X40.5954 Y2.9970
G01 X40.6061 Y2.9937
G01 X40.6163 Y2.9891
G01 X40.6258 Y2.9833
G01 X40.6865 Y2.9367
G01 X40.6944 Y2.9295
G01 X40.7013 Y2.9214
G01 X40.7999 Y2.7858
G01 X40.9458 Y2.6399
G01 X41.1126 Y2.5187
G01 X41.2964 Y2.4250
G01 X41.4926 Y2.3613
G01 X41.6964 Y2.3290
G01 X41.9026 Y2.3290
G01 X42.1064 Y2.3613
G01 X42.3026 Y2.4250
G01 X42.4864 Y2.5187
G01 X42.6532 Y2.6399
G01 X42.7991 Y2.7858
G01 X42.8979 Y2.9217
G01 X42.9151 Y2.9417
G01 X42.9212 Y2.9482
G01 X42.9298 Y2.9553
G01 X42.9391 Y2.9613
G01 X43.0069 Y2.9970
G01 X43.0152 Y3.0004
G01 X43.0259 Y3.0034
G01 X43.0347 Y3.0048
G01 X43.0459 Y3.0054
G01 X43.1244 Y2.9989
G01 X43.1354 Y2.9970
G01 X43.1461 Y2.9937
G01 X43.1563 Y2.9891
G01 X43.1658 Y2.9833
G01 X43.2265 Y2.9367
G01 X43.2344 Y2.9295
G01 X43.2413 Y2.9214
G01 X43.3399 Y2.7858
G01 X43.4858 Y2.6399
G01 X43.6526 Y2.5187
G01 X43.8364 Y2.4250
G01 X44.0326 Y2.3613
G01 X44.2364 Y2.3290
G01 X44.4426 Y2.3290
G01 X44.6464 Y2.3613
G01 X44.8426 Y2.4250
G01 X45.0264 Y2.5187
G01 X45.1932 Y2.6399
G01 X45.3391 Y2.7858
G01 X45.4379 Y2.9217
G01 X45.4551 Y2.9417
G01 X45.4612 Y2.9482
G01 X45.4698 Y2.9553
G01 X45.4791 Y2.9613
G01 X45.5469 Y2.9970
G01 X45.5573 Y3.0011
G01 X45.5659 Y3.0034
G01 X45.5770 Y3.0051
G01 X45.5859 Y3.0054
G01 X45.6644 Y2.9989
G01 X45.6754 Y2.9970
G01 X45.6861 Y2.9937
G01 X45.6963 Y2.9891
G01 X45.7058 Y2.9833
G01 X45.7665 Y2.9367
G01 X45.7744 Y2.9295
G01 X45.7813 Y2.9214
G01 X45.8799 Y2.7858
G01 X46.0258 Y2.6399
G01 X46.1926 Y2.5187
G01 X46.3764 Y2.4250
G01 X46.5726 Y2.3613
G01 X46.7764 Y2.3290
G01 X46.9826 Y2.3290
G01 X47.1864 Y2.3613
G01 X47.3826 Y2.4250
G01 X47.5664 Y2.5187
G01 X47.7332 Y2.6399
G01 X47.8791 Y2.7858
G01 X47.9779 Y2.9217
G01 X47.9951 Y2.9417
G01 X48.0012 Y2.9482
G01 X48.0098 Y2.9553
G01 X48.0191 Y2.9613
G01 X48.0869 Y2.9970
